assets/img/braze_icons/tool-02.svg

<svg fill="none" height="24" viewBox="0 0 24 24" width="24" xmlns="http://www.w3.org/2000/svg"><path d="m16.5 1c-3.5899 0-6.50002 2.91015-6.50002 6.5 0 .40766.03762.80741.10992 1.19569l-3.10987-3.10988v-2.58578c0-.43043-.27543-.81257-.68377-.94869l-3.00001-1c-.35933-.119774-.7555-.02625-1.02333.24158l-1 1c-.26783.26783-.361354.664-.24158 1.02333l1 3.00001c.13612.40834.51826.68377.94869.68377h2.58578l3.49997 3.49997-6.2929 6.2929c-1.21896 1.2189-1.21896 3.1952 0 4.4142 1.21895 1.2189 3.19526 1.2189 4.41421 0l4.79291-4.793 4.7929 4.7929c1.2189 1.219 3.1953 1.2189 4.4142 0 1.219-1.219 1.2189-3.1953 0-4.4142l-3.0152-3.0152c2.7695-.7445 4.8081-3.273 4.8081-6.2776 0-.63809-.0923-1.25638-.2648-1.84137-.0998-.3384-.3705-.59916-.7124-.68621s-.7044.01251-.9539.26198l-1.986 1.9752c-.2417.24029-.3625.36044-.49.42926-.2972.16035-.6553.15986-.9521-.00131-.1274-.06917-.2478-.18965-.4888-.4306-.241-.24099-.3615-.36148-.4307-.48888-.1611-.2968-.1616-.65491-.0012-.95213.0688-.12757.189-.24838.4294-.48999l2.1469-2.15811c.2365-.23651.3391-.5756.2734-.90355-.0657-.32796-.291-.60135-.6004-.72849-.7627-.31345-1.5972-.4858-2.4694-.4858z" fill="#801ed7"/></svg>

<svg width="24" height="24" viewBox="0 0 24 24" fill="none" xmlns="http://www.w3.org/2000/svg">
<path d="M16.5 1C12.9101 1 9.99998 3.91015 9.99998 7.5C9.99998 7.90766 10.0376 8.30741 10.1099 8.69569L7.00003 5.58581V3.00003C7.00003 2.5696 6.7246 2.18746 6.31626 2.05134L3.31625 1.05134C2.95692 0.931566 2.56075 1.02509 2.29292 1.29292L1.29292 2.29292C1.02509 2.56075 0.931566 2.95692 1.05134 3.31625L2.05134 6.31626C2.18746 6.7246 2.5696 7.00003 3.00003 7.00003H5.58581L9.08578 10.5L2.79288 16.7929C1.57392 18.0118 1.57392 19.9881 2.79288 21.2071C4.01183 22.426 5.98814 22.426 7.20709 21.2071L12 16.4141L16.7929 21.207C18.0118 22.426 19.9882 22.4259 21.2071 21.207C22.4261 19.988 22.426 18.0117 21.2071 16.7928L18.1919 13.7776C20.9614 13.0331 23 10.5046 23 7.5C23 6.86191 22.9077 6.24362 22.7352 5.65863C22.6354 5.32023 22.3647 5.05947 22.0228 4.97242C21.6809 4.88537 21.3184 4.98493 21.0689 5.2344L19.0829 7.2096C18.8412 7.44989 18.7204 7.57004 18.5929 7.63886C18.2957 7.79921 17.9376 7.79872 17.6408 7.63755C17.5134 7.56838 17.393 7.4479 17.152 7.20695C16.911 6.96596 16.7905 6.84547 16.7213 6.71807C16.5602 6.42127 16.5597 6.06316 16.7201 5.76594C16.7889 5.63837 16.9091 5.51756 17.1495 5.27595L19.2964 3.11784C19.5329 2.88133 19.6355 2.54224 19.5698 2.21429C19.5041 1.88633 19.2788 1.61294 18.9694 1.4858C18.2067 1.17235 17.3722 1 16.5 1Z" fill="#801ED7"/>
</svg>
